svgs/regular/shekel-sign.svg

<svg xmlns="http://www.w3.org/2000/svg" viewBox="0 0 448 512"><!--! Font Awesome Pro 6.6.0 by @fontawesome - https://fontawesome.com License - https://fontawesome.com/license (Commercial License) Copyright 2024 Fonticons, Inc. --><path d="M40 32C26.7 32 16 42.7 16 56l0 400c0 13.3 10.7 24 24 24s24-10.7 24-24L64 80l120 0c39.8 0 72 32.2 72 72l0 184c0 13.3 10.7 24 24 24s24-10.7 24-24l0-184c0-66.3-53.7-120-120-120L40 32zM312 480c66.3 0 120-53.7 120-120l0-304c0-13.3-10.7-24-24-24s-24 10.7-24 24l0 304c0 39.8-32.2 72-72 72l-120 0 0-248c0-13.3-10.7-24-24-24s-24 10.7-24 24l0 272c0 13.3 10.7 24 24 24l144 0z"/></svg>

<svg xmlns="http://www.w3.org/2000/svg" viewBox="0 0 448 512"><!--! Font Awesome Pro 6.4.0 by @fontawesome - https://fontawesome.com License - https://fontawesome.com/license (Commercial License) Copyright 2023 Fonticons, Inc. --><path d="M40 32C26.7 32 16 42.7 16 56V456c0 13.3 10.7 24 24 24s24-10.7 24-24V80H184c39.8 0 72 32.2 72 72V336c0 13.3 10.7 24 24 24s24-10.7 24-24V152c0-66.3-53.7-120-120-120H40zM312 480c66.3 0 120-53.7 120-120V56c0-13.3-10.7-24-24-24s-24 10.7-24 24V360c0 39.8-32.2 72-72 72H192V184c0-13.3-10.7-24-24-24s-24 10.7-24 24V456c0 13.3 10.7 24 24 24H312z"/></svg>
